assets/Victory hand/Dark/Flat/victory_hand_flat_dark.svg

<svg width="32" height="32" viewBox="0 0 32 32" fill="none" xmlns="http://www.w3.org/2000/svg">
<path d="M10.2179 11.1711C10.6295 9.95904 11.5803 9.51562 12.6875 9.51562C13.3636 9.51562 13.9815 9.75233 14.4538 10.2023L14.125 4.59376C14.0469 3.84375 14.7438 2.21876 16.4688 2.09376C17.3021 2.02085 19.05 2.40625 19.25 4.40625C19.4428 6.33443 19.6415 10.003 19.7395 11.8134L19.75 12.0078C19.75 12.1485 19.9688 12.3516 20.1485 12.0625L22.125 6.20313C22.4115 5.42188 23.4844 4.02813 25.4844 4.70312C27.4844 5.37812 27.2188 7.59375 26.9063 8.4375L25.125 13.6875C24.6423 15.0422 24.7803 16.6451 25.106 20.4291L25.1094 20.4688C25.4375 24.2812 22.7344 29.9062 15.0469 29.9062C10.5938 29.9062 7.12502 27.1875 6.34377 22.0312C5.83297 18.6602 5.99221 16.0547 5.99221 16.0547H6.00304C5.98048 15.9149 5.96875 15.7687 5.96875 15.6161V13.3682C5.96875 11.5189 7.17199 10.5703 8.65625 10.5703C9.28467 10.5703 9.81509 10.7949 10.2179 11.1711Z" fill="#573739"/>
<path d="M15.1302 4.92717C15.1359 5.04989 15.1413 5.16675 15.1445 5.27544L15.6698 13.004C15.6844 13.219 15.5609 13.4114 15.375 13.4945V12.6898C15.375 11.599 15.0288 10.7651 14.4787 10.2264L14.308 7.71435L14.125 4.59376C14.0503 3.87699 14.6835 2.36111 16.2454 2.11902L16.2483 2.22284C15.8842 2.23287 15.6721 2.35166 15.5301 2.50333C15.3746 2.66938 15.2618 2.92043 15.1924 3.25274C15.0777 3.80182 15.1063 4.4155 15.1302 4.92717Z" fill="#341A1C"/>
<path d="M8.65622 18.0625C9.09969 18.0625 9.49436 17.982 9.8298 17.828C9.48133 17.2534 9.17969 16.3916 9.17969 15.5234C9.17969 14.9598 9.20145 14.1944 9.22288 13.4807L9.22854 13.293C9.24806 12.6459 9.26562 12.0635 9.26562 11.7187C9.26562 11.3158 9.32088 10.9679 9.39962 10.6856C9.74843 10.8 10.0511 10.9951 10.2997 11.2515C10.2789 11.3884 10.2656 11.5444 10.2656 11.7187C10.2656 12.0797 10.2476 12.6779 10.2283 13.3171L10.2224 13.5107C10.2009 14.2282 10.1797 14.9777 10.1797 15.5234C10.1797 16.1323 10.3815 16.7581 10.6182 17.1934L10.626 17.1828C11.119 17.8158 11.8595 18.1875 12.6875 18.1875C13.8951 18.1875 14.9167 17.3967 15.2555 16.1578C15.1374 17.9215 14.5677 20 12.6718 20C11.5218 20 10.8281 19.5 10.5138 18.8575C10.1231 19.4697 9.67185 20 8.42185 20C6.4854 20 6.11744 17.6638 6.03064 16.1989C6.29439 17.3855 7.36975 18.0625 8.65622 18.0625Z" fill="#341A1C"/>
<path d="M18.5938 19.9241C18.9934 20.0827 19.446 20.1954 19.9375 20.25C22.4688 20.5313 23.4687 22.7735 23.4687 23.4688C23.4687 23.9416 23.2181 24.3056 22.8468 24.4568C22.6097 24.5237 22.3807 24.5415 22.1753 24.5024C22.1017 24.486 22.0268 24.4627 21.9511 24.4323C21.677 24.3083 21.468 24.0529 21.375 23.6406C21.1622 22.6968 20.3804 21.2104 18.7714 20.8902C17.9032 21.0969 17.069 21.5697 16.1734 22.2705C15.2608 22.9848 14.3168 23.909 13.2255 24.9816C13.0286 25.1751 12.712 25.1724 12.5185 24.9755C12.3249 24.7785 12.3276 24.462 12.5246 24.2684C13.6052 23.2063 14.5913 22.2389 15.5571 21.483C16.0123 21.1268 16.4701 20.8117 16.9398 20.5521C15.9268 19.9982 15.7188 18.7533 15.7188 18.1562C15.7188 17.375 16.2516 15.8134 18.1249 15.7344L18.1806 15.7322C15.964 17.2662 16.6315 19.1287 18.5632 19.9119C18.572 19.9098 18.5808 19.9078 18.5896 19.9058L18.5938 19.9241Z" fill="#341A1C"/>
<path d="M20.0882 12.1856L20.1121 12.114C20.1243 12.0989 20.1365 12.0818 20.1485 12.0625L22.125 6.20312C22.3811 5.50478 23.2655 4.31705 24.8788 4.55491C24.2999 4.56661 23.8188 5.02335 23.3944 5.8105C23.0668 6.41797 22.8502 7.0725 22.6779 7.59334C22.6146 7.78471 22.5573 7.95803 22.5026 8.10435L21.0369 12.5019C20.9495 12.7638 20.6664 12.9054 20.4044 12.8181C20.1424 12.7308 20.0008 12.4476 20.0882 12.1856Z" fill="#341A1C"/>
</svg>

<svg xmlns="http://www.w3.org/2000/svg" width="32" height="32" fill="none"><path fill="#573739" d="M10.218 11.171c.412-1.212 1.362-1.655 2.47-1.655a2.52 2.52 0 0 1 1.766.686l-.329-5.608c-.078-.75.619-2.375 2.344-2.5.833-.073 2.581.312 2.781 2.312.193 1.928.392 5.597.49 7.407l.01.195c0 .14.219.344.398.055l1.977-5.86c.287-.781 1.36-2.175 3.36-1.5 2 .675 1.734 2.89 1.421 3.734l-1.781 5.25c-.483 1.355-.345 2.958-.019 6.742l.003.04c.328 3.812-2.375 9.437-10.062 9.437-4.453 0-7.922-2.718-8.703-7.875-.511-3.37-.352-5.976-.352-5.976h.011a2.75 2.75 0 0 1-.034-.439v-2.248c0-1.85 1.203-2.798 2.687-2.798.629 0 1.16.225 1.562.601Z"/><path fill="#341A1C" d="M15.13 4.927c.006.123.011.24.014.348l.526 7.729a.5.5 0 0 1-.295.49v-.804c0-1.091-.346-1.925-.896-2.464l-.171-2.512-.183-3.12c-.075-.717.559-2.233 2.12-2.475l.003.104c-.364.01-.576.129-.718.28-.155.166-.268.417-.338.75-.114.549-.086 1.162-.062 1.674ZM8.656 18.063c.444 0 .838-.081 1.174-.235a4.667 4.667 0 0 1-.65-2.305c0-.563.021-1.329.043-2.042l.006-.188c.02-.647.037-1.23.037-1.574 0-.403.055-.751.134-1.033.348.114.651.31.9.566-.021.136-.034.292-.034.467 0 .36-.018.959-.038 1.598l-.006.194a75.369 75.369 0 0 0-.042 2.012c0 .61.202 1.235.438 1.67l.008-.01a2.583 2.583 0 0 0 2.062 1.005c1.207 0 2.229-.791 2.567-2.03-.118 1.764-.687 3.842-2.583 3.842-1.15 0-1.844-.5-2.158-1.142-.39.612-.842 1.142-2.092 1.142-1.937 0-2.305-2.336-2.391-3.801.263 1.186 1.339 1.863 2.625 1.863ZM18.594 19.924c.4.159.852.271 1.343.326 2.532.281 3.532 2.523 3.532 3.219 0 .473-.25.837-.622.988a1.474 1.474 0 0 1-.672.045 1.446 1.446 0 0 1-.224-.07c-.274-.124-.483-.38-.576-.791-.213-.944-.995-2.43-2.604-2.75-.868.206-1.702.679-2.598 1.38-.912.714-1.856 1.638-2.947 2.71a.5.5 0 0 1-.701-.713c1.08-1.062 2.066-2.03 3.032-2.785a10.51 10.51 0 0 1 1.383-.93c-1.013-.555-1.221-1.8-1.221-2.397 0-.781.533-2.343 2.406-2.422l.056-.002c-2.217 1.534-1.55 3.397.382 4.18l.027-.006.004.018ZM20.088 12.186l.024-.072a.512.512 0 0 0 .037-.052l1.976-5.859c.256-.698 1.14-1.886 2.754-1.648-.58.012-1.06.468-1.485 1.256-.327.607-.544 1.261-.716 1.782-.063.192-.12.365-.175.511l-1.466 4.398a.5.5 0 0 1-.949-.316Z"/></svg>
